svg/fluentui-system-icons/ic_fluent_shopping_bag_play_20_regular.svg

<svg width="20" height="20" viewBox="0 0 20 20" fill="none" xmlns="http://www.w3.org/2000/svg">
<path d="M15 6C15.5523 6 16 6.44772 16 7V9.20703C15.6777 9.11588 15.3434 9.05337 15 9.02242V7H12V9.59971C11.6422 9.78261 11.3071 10.0035 11 10.2572V7H5V15C5 15.276 5.052 15.536 5.156 15.781C5.26 16.021 5.403 16.232 5.586 16.414C5.769 16.596 5.982 16.74 6.227 16.844C6.466 16.948 6.724 17 7 17H9.59971C9.78261 17.3578 10.0035 17.6929 10.2572 18H7C6.583 18 6.195 17.922 5.836 17.766C5.471 17.61 5.154 17.396 4.883 17.125C4.607 16.849 4.391 16.531 4.235 16.172C4.078 15.807 4 15.417 4 15V7C4 6.44772 4.44772 6 5 6H6V4.5C6 4.156 6.065 3.833 6.195 3.531C6.325 3.224 6.505 2.958 6.734 2.734C6.958 2.505 7.224 2.325 7.531 2.195C7.833 2.065 8.156 2 8.5 2C8.781 2 9.049 2.044 9.305 2.133C9.561 2.222 9.795 2.347 10.008 2.508C10.216 2.347 10.448 2.222 10.703 2.133C10.953 2.044 11.219 2 11.5 2C11.844 2 12.169 2.065 12.477 2.195C12.779 2.325 13.045 2.505 13.274 2.734C13.498 2.958 13.675 3.224 13.805 3.531C13.935 3.833 14 4.156 14 4.5V6H15ZM13 4.5C13 4.292 12.961 4.096 12.883 3.914C12.805 3.732 12.698 3.573 12.563 3.437C12.428 3.301 12.269 3.195 12.086 3.117C11.903 3.039 11.708 3 11.5 3C11.193 3 10.917 3.086 10.672 3.258C10.776 3.44 10.857 3.635 10.914 3.844C10.971 4.053 11 4.271 11 4.5V6H13V4.5ZM7 6H10V4.5C10 4.292 9.961 4.096 9.883 3.914C9.805 3.732 9.698 3.573 9.563 3.437C9.428 3.301 9.269 3.195 9.086 3.117C8.903 3.039 8.708 3 8.5 3C8.292 3 8.096 3.039 7.914 3.117C7.732 3.195 7.573 3.302 7.437 3.437C7.301 3.572 7.195 3.731 7.117 3.914C7.039 4.097 7 4.292 7 4.5V6ZM19 14.5C19 16.9854 16.9853 19 14.5 19C12.0147 19 10 16.9854 10 14.5C10 12.0146 12.0147 10 14.5 10C16.9853 10 19 12.0146 19 14.5ZM14.0201 12.5339C13.9421 12.481 13.8556 12.4546 13.7607 12.4546C13.6946 12.4546 13.6319 12.4688 13.5725 12.4968C13.5132 12.5234 13.4615 12.5596 13.4174 12.6055C13.3733 12.6514 13.3377 12.7051 13.3106 12.7668C13.2852 12.8286 13.2725 12.8938 13.2725 12.9626V16.0374C13.2725 16.1045 13.2852 16.1689 13.3106 16.2307C13.3377 16.2922 13.3733 16.3469 13.4174 16.3948C13.4632 16.4404 13.5157 16.4775 13.5751 16.5059C13.6344 16.5322 13.6963 16.5454 13.7607 16.5454C13.8099 16.5454 13.8556 16.5383 13.898 16.5244C13.9103 16.5205 13.9225 16.5161 13.9346 16.511C13.9661 16.498 13.9971 16.4812 14.0277 16.4609L16.3239 14.8943C16.3756 14.8601 16.4189 14.8174 16.4536 14.7656C16.4657 14.7478 16.4767 14.729 16.4867 14.709C16.5257 14.6313 16.5452 14.5503 16.5452 14.4656C16.5452 14.3774 16.5248 14.2964 16.4842 14.2222C16.4435 14.1462 16.3875 14.0854 16.3163 14.0396L14.0201 12.5339Z" fill="#212121"/>
</svg>

<svg xmlns="http://www.w3.org/2000/svg" width="20" height="20"><path d="M15 6a1 1 0 0 1 1 1v2.207a5.48 5.48 0 0 0-1-.185V7h-3v2.6a5.503 5.503 0 0 0-1 .657V7H5v8a1.977 1.977 0 0 0 .586 1.414A2.018 2.018 0 0 0 7 17h2.6c.183.358.404.693.657 1H7a3 3 0 0 1-2.117-.875 3.062 3.062 0 0 1-.648-.953A2.932 2.932 0 0 1 4 15V7a1 1 0 0 1 1-1h1V4.5c0-.344.065-.667.195-.969.13-.307.31-.573.539-.797.224-.229.49-.409.797-.539.302-.13.625-.195.969-.195.281 0 .549.044.805.133.256.089.49.214.703.375A2.442 2.442 0 0 1 11.5 2a2.484 2.484 0 0 1 2.305 1.531c.13.302.195.625.195.969V6h1Zm-2-1.5c0-.208-.039-.404-.117-.586A1.482 1.482 0 0 0 11.5 3c-.307 0-.583.086-.828.258A2.503 2.503 0 0 1 11 4.5V6h2V4.5ZM7 6h3V4.5c0-.208-.039-.404-.117-.586A1.482 1.482 0 0 0 8.5 3c-.208 0-.404.039-.586.117A1.482 1.482 0 0 0 7 4.5V6Zm12 8.5a4.5 4.5 0 1 1-9 0 4.5 4.5 0 0 1 9 0Zm-4.98-1.966a.452.452 0 0 0-.447-.037.492.492 0 0 0-.156.108.51.51 0 0 0-.145.357v3.075a.504.504 0 0 0 .145.358.57.57 0 0 0 .158.11.453.453 0 0 0 .36.006.545.545 0 0 0 .093-.05l2.296-1.567a.46.46 0 0 0 .163-.185.535.535 0 0 0-.003-.487.486.486 0 0 0-.168-.182l-2.296-1.506Z"/></svg>
